X:1
T:The Plain Golden Band
M:3/4
L:1/4
K:C
 G/2G/2|
M:4/4
 c B2 F| A G2 E|
M:3/4
 D E3/2 D/2| C z E/2E/2| D E F| G d3/2 c/2| B G A| G z G/2G/2| G/2 E3/2- E/2|\
 G/2| G/2 E3/2 C| F A3/2 B/2| c z G/2G/2| c G3/2 F/2| E F G/2B/2| d B3/2 G/2|\
 c2||
